X:11102
T:Durham Rangers
R:Reel
B:Tuneworks Tunebook (https://www.tuneworks.co.uk/)
G:Tuneworks
Z:Jon Warbrick <jon.warbrick@googlemail.com>
M:4/4
L:1/8
K:D
|: FG | "D"ABAF A2 de | fgfe d2 A2 | "G"BcdB ABAF | "A"G2 E2 E2 FG | 
"D"ABAF A2 de | fgfe d2 A2 | "G"BcdB "A"ABAG | F2 D2 "D"D2 :|
|: bg | "D"fefg bfdf | "A"edcB Adfb | "G"g2 bg "D"f2 af | "A"g2 e2 e2 FG | 
"D"ABAF A2 de | fgfe d2 dA | "G"BcdB "A"ABAG | F2 D2 "D"D2 :|